svg/k8s-cronjob.svg

<?xml version="1.0" encoding="UTF-8"?>
<svg xmlns="http://www.w3.org/2000/svg" xmlns:xlink="http://www.w3.org/1999/xlink" width="32.978001" height="32" viewBox="0 0 32.978001 32">
<path fill-rule="nonzero" fill="rgb(19.607843%, 42.352941%, 89.803922%)" fill-opacity="1" d="M 16.378906 0.847656 C 16.105469 0.863281 15.835938 0.933594 15.585938 1.046875 L 4.722656 6.238281 C 4.15625 6.507812 3.742188 7.023438 3.601562 7.636719 L 0.921875 19.292969 C 0.78125 19.902344 0.925781 20.546875 1.320312 21.035156 L 8.839844 30.382812 C 9.234375 30.871094 9.832031 31.15625 10.460938 31.15625 L 22.515625 31.152344 C 23.148438 31.152344 23.746094 30.871094 24.140625 30.378906 L 31.65625 21.03125 C 32.050781 20.542969 32.199219 19.902344 32.058594 19.289062 L 29.375 7.632812 C 29.234375 7.019531 28.820312 6.503906 28.25 6.234375 L 17.386719 1.046875 C 17.074219 0.898438 16.726562 0.828125 16.378906 0.847656 M 16.378906 0.847656 "/>
<path fill-rule="nonzero" fill="rgb(100%, 100%, 100%)" fill-opacity="1" d="M 16.375 0.00390625 C 16.082031 0.0195312 15.796875 0.0898438 15.535156 0.214844 L 4.070312 5.695312 C 3.46875 5.980469 3.03125 6.523438 2.882812 7.167969 L 0.0546875 19.472656 C -0.078125 20.046875 0.03125 20.648438 0.351562 21.140625 C 0.390625 21.203125 0.433594 21.257812 0.476562 21.3125 L 8.414062 31.183594 C 8.832031 31.699219 9.464844 32 10.128906 32 L 22.851562 31.996094 C 23.519531 31.996094 24.152344 31.695312 24.566406 31.179688 L 32.5 21.3125 C 32.914062 20.796875 33.070312 20.117188 32.921875 19.472656 L 30.089844 7.164062 C 29.9375 6.519531 29.503906 5.976562 28.90625 5.691406 L 17.4375 0.214844 C 17.105469 0.0585938 16.742188 -0.015625 16.375 0.00390625 M 16.378906 0.847656 C 16.726562 0.828125 17.074219 0.898438 17.386719 1.046875 L 28.25 6.234375 C 28.816406 6.507812 29.230469 7.019531 29.375 7.632812 L 32.058594 19.289062 C 32.199219 19.902344 32.050781 20.542969 31.65625 21.03125 L 24.140625 30.378906 C 23.746094 30.871094 23.148438 31.15625 22.515625 31.152344 L 10.460938 31.15625 C 9.828125 31.15625 9.230469 30.871094 8.839844 30.382812 L 1.320312 21.035156 C 0.925781 20.546875 0.78125 19.902344 0.921875 19.292969 L 3.601562 7.636719 C 3.742188 7.023438 4.15625 6.507812 4.722656 6.238281 L 15.585938 1.046875 C 15.832031 0.929688 16.105469 0.859375 16.378906 0.847656 M 18.472656 6.511719 L 18.472656 10.429688 L 22.5 10.429688 L 22.5 6.511719 Z M 18.472656 12.148438 L 18.472656 13.148438 C 19.820312 12.824219 21.234375 12.953125 22.5 13.511719 L 22.5 12.148438 Z M 6.980469 12.210938 L 6.980469 16.128906 L 11.011719 16.128906 L 11.011719 12.210938 Z M 12.726562 12.210938 L 12.726562 16.128906 L 14.421875 16.128906 C 14.992188 15.175781 15.792969 14.382812 16.753906 13.828125 L 16.753906 12.210938 Z M 6.945312 17.910156 L 6.945312 21.828125 L 10.972656 21.828125 L 10.972656 17.910156 Z M 12.707031 17.910156 L 12.707031 21.828125 L 14 21.828125 C 13.679688 21.058594 13.515625 20.230469 13.515625 19.398438 C 13.515625 18.882812 13.582031 18.386719 13.699219 17.910156 Z M 20.183594 13.789062 C 16.964844 13.789062 14.332031 16.421875 14.332031 19.636719 C 14.332031 22.855469 16.964844 25.488281 20.183594 25.488281 C 23.402344 25.488281 26.035156 22.855469 26.035156 19.636719 C 26.035156 16.421875 23.402344 13.789062 20.183594 13.789062 M 22.640625 22.09375 L 19.597656 20.222656 L 19.597656 16.710938 L 20.476562 16.710938 L 20.476562 19.753906 L 23.109375 21.335938 Z M 22.640625 22.09375 "/>
</svg>

<svg role="img" viewBox="0 0 32.978 32" height="32" width="32.978" xmlns="http://www.w3.org/2000/svg"><path d="M16.379.848a2.238 2.238 0 0 0-.793.199L4.723 6.238a2.06 2.06 0 0 0-1.121 1.399L.922 19.293c-.14.61.004 1.254.398 1.742l7.52 9.348c.394.488.992.773 1.62.773l12.056-.004c.632 0 1.23-.28 1.625-.773l7.515-9.348a2.042 2.042 0 0 0 .403-1.742L29.375 7.633a2.055 2.055 0 0 0-1.125-1.399L17.387 1.047a2.082 2.082 0 0 0-1.008-.2m0 0" fill="rgb(19.607843%, 42.352941%, 89.803922%)"/><path d="M16.375.004a2.22 2.22 0 0 0-.84.21L4.07 5.696a2.171 2.171 0 0 0-1.187 1.473L.055 19.473a2.164 2.164 0 0 0 .297 1.668c.039.062.082.117.125.172l7.937 9.87a2.21 2.21 0 0 0 1.715.817l12.723-.004c.668 0 1.3-.3 1.714-.816l7.934-9.867c.414-.516.57-1.196.422-1.84L30.09 7.164a2.187 2.187 0 0 0-1.184-1.473L17.438.215a2.216 2.216 0 0 0-1.063-.211m.004.844c.348-.02.695.05 1.008.199L28.25 6.234c.566.274.98.786 1.125 1.399l2.684 11.656a2.042 2.042 0 0 1-.403 1.742l-7.515 9.348a2.065 2.065 0 0 1-1.625.773l-12.055.004c-.633 0-1.23-.285-1.621-.773l-7.52-9.348a2.043 2.043 0 0 1-.398-1.742l2.68-11.656a2.06 2.06 0 0 1 1.12-1.399l10.864-5.191c.246-.117.52-.188.793-.2m2.094 5.665v3.918H22.5V6.512Zm0 5.636v1a6.314 6.314 0 0 1 4.027.364v-1.364Zm-11.493.063v3.918h4.032V12.21Zm5.747 0v3.918h1.695a6.516 6.516 0 0 1 2.332-2.3V12.21Zm-5.782 5.7v3.917h4.028V17.91Zm5.762 0v3.917H14a6.33 6.33 0 0 1-.484-2.43c0-.515.066-1.011.183-1.488Zm7.477-4.122c-3.22 0-5.852 2.633-5.852 5.848 0 3.218 2.633 5.851 5.852 5.851 3.218 0 5.851-2.633 5.851-5.851 0-3.215-2.633-5.848-5.851-5.848m2.457 8.305-3.043-1.871V16.71h.879v3.043l2.632 1.582Zm0 0" fill="rgb(100%, 100%, 100%)"/></svg>
